!!!COM: Buxtehude, Dietrich
!!!CDT: ~1637///-1707/05/09/
!!!ODT: ~1694///
!!!OTL: Sonata in B-flat Major, Op. 1, No. 4
!!!OPS: Op. 1
!!!ONM: No. 4
!!!SCA: BuxWV 255
!!!OMD: 2. Lento
!!!URL: http://www.lysator.liu.se/~tuben/scores
**kern	**kern	**kern
*staff3	*staff2	*staff1
*Icemba	*Iviola	*Ivioln
*clefF4	*clefC3	*clefG2
*k[b-e-]	*k[b-e-]	*k[b-e-]
*M2/2	*M2/2	*M2/2
*MM60	*MM60	*MM60
=114-	=114-	=114-
1FF#	8r	2r
.	8FF#/L	.
.	8FF#/	.
.	8FF#/J	.
.	2FF#/	8r
.	.	(16dd\LL
.	.	16ee-\JJ
.	.	8dd\L
.	.	8dd\J)
=115	=115	=115
2.GG/	8r	2dd\
.	8GG/L	.
.	8BB-/	.
.	8D/J	.
.	8.G/L	8r
.	.	8bb-\L
.	16GG/Jk	.
4AA/	(8AA/L	8.ff#\
.	16BB-/L	.
.	16C/JJ)	16ff#\Jk
=116	=116	=116
2.BB-/	8r	2gg\
.	8BB-\L	.
.	8D\	.
.	8G\J	.
.	8.B-\L	8r
.	.	8dd\L
.	16BB-\Jk	.
4C/	(8C\L	8.a\
.	16D\L	.
.	16E-\JJ)	16a\Jk
=117	=117	=117
2.D\	8r	2b-\
.	8D\L	.
.	8F\	.
.	8B-\J	.
.	8.d\L	8r
.	.	8f/L
.	16D\Jk	.
4D\	(8D\L	8.b-/
.	16E-\L	.
.	16F\JJ)	16f/Jk
=118	=118	=118
[2E-\	8r	2g/
.	8E-\L	.
.	8G\	.
.	8B-\J	.
4E-\]	2c\	8r
.	.	8g/L
4En\	.	8.cc/
.	.	16g/Jk
=119	=119	=119
[2F\	8r	2a/
.	16c\LL	.
.	16d\JJ	.
.	8c\L	.
.	16B-\L	.
.	16A\JJ	.
4F\]	[2d\	8r
.	.	8a\L
4F#\	.	8.dd\
.	.	16a\Jk
=120	=120	=120
2G\	4d\]	8.b-/L
.	.	16a/k
.	2B-\	8g/
.	.	8dd/J
[2C/	.	8.ee-\L
.	.	16dd\k
.	8.A\L	8.cc\
.	16G\Jk	16b-\Jk
=121	=121	=121
2C/]	8F#\L	8a/L
.	8G\J	8b-/
.	8A\L	(8cc/
.	16G\L	16b-/L
.	16F#\JJ	16a/JJ)
4.BB-/	4.G\	8r
.	.	8d/
.	.	[4dd\
8C/	8A\	.
=122	=122	=122
1D	8B-\L	8.dd\L]
.	8A\	.
.	.	16cc\Jk
.	8F#\	(16dd\LL
.	.	16cc\J)
.	8G\J	[8b-\J
.	4.G\	16b-\LL]
.	.	(16a\
.	.	16b-\
.	.	16cc\JJ)
.	.	8.b-/L
.	8F#\	.
.	.	16a/Jk
=123	=123	=123
4GG/	4G\	(16b-/LL
.	.	16a/J
.	.	8g/J)
*	*clefC3	*
8r	8r	4.ee-\
8G\	8B-/	.
4A\	8c\L	.
.	8d\	8ff\L
4B-\	8c\	8ee-\
.	8B-\J	8dd\J
=124	=124	=124
[2E-\	8B-/L	8.gg\L
.	8G/J	.
.	.	16ff\k
.	8.c/L	8.ee-\
.	16B-/Jk	16dd\Jk
4E-\]	4A/	8cc/L
.	.	8f/J
4D\	8r	[4ff\
.	8F/	.
=125	=125	=125
2G\	8B-/L	8.ff\L]
.	8A/	.
.	.	16ee-\k
.	8B-/	8.dd\
.	8c/J	.
.	.	16cc\Jk
2G\	8d\L	8b-/L
.	8c\	8a/J
.	8d\	8b-/L
.	8en\J	16a/L
.	.	16g/JJ
=126	=126	=126
1F	8f\L	4a/
.	8c\	.
.	8d\	8b-\L
.	8e-\J	[8cc\J
.	4d-\	8cc\L]
.	.	8b-\
.	4c\	8.b-\
.	.	16a\Jk
==	==	==
*-	*-	*-
!!!ENC: Craig Stuart Sapp
!!!END: 2004/12/16/
